X:142
T:Green Sleeves
B:Joyce, P. W.; "Old Irish Folk Music and Songs"
R:jig
L:1/8
M:6/8
K:G
dc|B3 GBd|c2 A ABc|BAG GBd|cAG FGA|
B3 GBd|c2 A ABc|ded cAF|G3 G2::e|
=f3 ege|=f2 d de^f|gag gfg|afd dfa|
gba g/f/ed|cAG FGA|BGd cAF|G3 G2::(3d/e/f/|
gdB BGB|c2 A ABc|BAB GBd|cAG FGA|
gdc BGB|c2 A ABc|ded cAF|G3 G2:|

